dist/images/joy/communications1.svg

<svg width="127" height="126" viewBox="0 0 127 126" fill="none" xmlns="http://www.w3.org/2000/svg">
<circle cx="63.5" cy="63" r="61.5" stroke="#E2704C" stroke-width="3"/>
<g clip-path="url(#clip0)">
<path d="M81.9254 64.1746C81.2013 62.497 80.2103 60.5766 79.1612 58.5435C77.1148 54.5777 74.7954 50.0829 73.5746 45.7533C72.2532 41.0663 72.4884 37.4774 74.2938 34.7816C74.7035 34.1696 74.696 33.3689 74.2746 32.7648C73.8532 32.1608 73.1046 31.877 72.3886 32.0502C72.0504 32.1321 64.0623 34.1276 60.2009 40.5893C58.9085 42.7517 58.2343 45.1384 58.1809 47.7223C57.0291 46.8524 55.7425 46.1038 54.5141 45.8641C53.9497 45.7541 53.367 45.9221 52.9481 46.316C52.5291 46.7097 52.3252 47.2809 52.4 47.851C53.0279 52.6315 50.8785 55.8028 48.3898 59.475C47.2217 61.1985 46.0139 62.9808 45.0087 65.0445C42.3539 70.4943 42.7852 76.3505 46.2905 82.4505C50.1017 89.0825 57.1088 93.0001 64.4447 93.0001C66.2135 93.0001 68.0023 92.7721 69.7691 92.2996C69.905 92.2633 70.0416 92.2279 70.1761 92.1869C75.3236 90.6146 79.4295 87.0022 81.7373 82.0151C84.2934 76.492 84.3637 69.8227 81.9254 64.1746ZM58.0314 86.8736C56.5461 85.2077 55.8443 82.9459 56.1062 80.6681C56.3715 78.3599 58.4028 75.6952 60.367 73.1182C62.3831 70.4731 64.576 67.5963 65.2429 64.5569C67.1455 67.0013 68.8755 71.3458 66.5022 78.2682C66.3031 78.8487 66.4158 79.4907 66.8008 79.9686C67.1856 80.4466 67.7887 80.6937 68.3985 80.6231C69.0345 80.5493 69.9592 80.2679 70.8372 79.6772C71.1887 82.0861 70.7769 84.5343 69.6178 86.3686C68.7644 87.7191 67.1201 89.3205 64.1002 89.4217C63.5202 89.4101 62.9432 89.3689 62.3711 89.2991C60.69 88.9979 59.1823 88.1644 58.0314 86.8736ZM78.4938 80.5139C77.3362 83.0153 75.6257 85.089 73.5073 86.6094C75.0031 83.0731 74.8807 78.6653 73.0861 74.8896C72.7533 74.1891 72.007 73.7833 71.2373 73.8851C71.2015 73.8898 71.166 73.8956 71.1309 73.9025C71.6002 69.2103 70.3155 65.8171 68.9283 63.6077C66.8545 60.3051 64.0943 58.8668 63.9779 58.8071C63.3063 58.4634 62.491 58.5786 61.941 59.0948C61.3908 59.6111 61.224 60.4173 61.5243 61.1094C62.7946 64.0371 60.2346 67.3957 57.5243 70.9516C55.2672 73.913 52.9331 76.9752 52.5554 80.2599C52.3655 81.9116 52.5293 83.5604 53.0131 85.1C51.599 83.8581 50.3677 82.3717 49.3897 80.6696C46.4702 75.5892 46.0883 70.9902 48.2221 66.6098C49.1156 64.7752 50.2508 63.1002 51.3487 61.4803C53.5119 58.2885 55.7351 55.0079 56.049 50.5878C57.2092 51.4763 58.4146 52.6738 59.2014 53.6032C59.74 54.2412 60.6489 54.4212 61.39 54.0365C62.1312 53.6518 62.5074 52.8052 62.2956 51.9974C61.3377 48.3403 61.6615 45.1253 63.2581 42.4415C64.832 39.7959 67.3893 38.0507 69.5201 36.9752C68.8762 39.7687 69.0831 42.9943 70.1346 46.7236C71.4534 51.401 73.8608 56.0665 75.985 60.1827C77.0051 62.1597 77.9686 64.0269 78.644 65.5914C80.6854 70.3205 80.6293 75.8991 78.4938 80.5139Z" fill="#373737"/>
</g>
<defs>
<clipPath id="clip0">
<rect width="61" height="61" fill="white" transform="translate(33 32)"/>
</clipPath>
</defs>
</svg>

<svg width="127" height="126" fill="none" xmlns="http://www.w3.org/2000/svg"><circle cx="63.5" cy="63" r="61.5" stroke="#E2704C" stroke-width="3"/><g clip-path="url(#clip0)"><path d="M81.925 64.175c-.724-1.678-1.715-3.598-2.764-5.631-2.046-3.966-4.366-8.461-5.586-12.79-1.322-4.688-1.087-8.277.719-10.972a1.787 1.787 0 00-1.905-2.732c-.339.082-8.327 2.078-12.188 8.54-1.293 2.162-1.967 4.548-2.02 7.132-1.152-.87-2.438-1.618-3.667-1.858a1.787 1.787 0 00-2.114 1.987c.628 4.78-1.521 7.952-4.01 11.624-1.168 1.724-2.376 3.506-3.381 5.57-2.655 5.45-2.224 11.305 1.282 17.406C50.1 89.083 57.108 93 64.445 93c1.769 0 3.557-.229 5.324-.701.136-.037.273-.072.407-.113 5.148-1.572 9.254-5.185 11.561-10.172 2.556-5.523 2.627-12.192.188-17.84zM58.031 86.874c-1.485-1.666-2.187-3.928-1.925-6.206.265-2.308 2.297-4.973 4.261-7.55 2.016-2.645 4.209-5.522 4.876-8.561 1.903 2.444 3.633 6.789 1.26 13.711a1.786 1.786 0 001.895 2.355c.636-.074 1.561-.355 2.44-.946.35 2.41-.061 4.857-1.22 6.692-.854 1.35-2.498 2.951-5.518 3.053a17.1 17.1 0 01-1.729-.123 7.55 7.55 0 01-4.34-2.425zm20.463-6.36c-1.158 2.501-2.868 4.575-4.987 6.095 1.496-3.536 1.374-7.944-.42-11.72a1.787 1.787 0 00-1.956-.986c.47-4.693-.816-8.086-2.203-10.295-2.073-3.303-4.834-4.741-4.95-4.8a1.787 1.787 0 00-2.454 2.301c1.27 2.928-1.29 6.287-4 9.843-2.257 2.961-4.59 6.023-4.969 9.308-.19 1.652-.026 3.3.458 4.84a17.478 17.478 0 01-3.623-4.43c-2.92-5.08-3.302-9.68-1.168-14.06.894-1.835 2.029-3.51 3.127-5.13 2.163-3.191 4.386-6.472 4.7-10.892 1.16.888 2.366 2.086 3.152 3.015a1.787 1.787 0 003.095-1.606c-.958-3.657-.635-6.872.962-9.556 1.574-2.645 4.131-4.39 6.262-5.466-.644 2.794-.437 6.02.615 9.749 1.318 4.677 3.726 9.343 5.85 13.459 1.02 1.977 1.984 3.844 2.659 5.408 2.041 4.73 1.985 10.308-.15 14.923z" fill="#373737"/></g><defs><clipPath id="clip0"><path fill="#fff" transform="translate(33 32)" d="M0 0h61v61H0z"/></clipPath></defs></svg>
